X:78
T:Steyrer Tanz in G, nr. 40
C:traditionell
R:Steirer
A:Hallstatt, Salzkammergut
B:Corpus Musicae Popularis Austriacae (COMPA), 5.Band: J.M.Schmalnauer " Tanz Musik", Verlag Boehlau, Wien 1996
S:manuscript des Johann Michael Schmalnauer um 1820
N:im der quelle in G
Z:abc transcription Simon Wascher
F:http://simonwascher.info/TradArchiv/
M:3/4
L:1/8
K:G
V:1
%violino 1mo
P:h:Ap:
DC |\
B,DGB,GB, | D2 FAcA | G2 FDFD | G2 BDBD |\
B,DGB,GB, | D2 FAcA | G2 FDFD | "in D" G4 :|
V:2
%violino 2do
.B.A |\
(DG)(BGBG) | (B2 Ac)ec | B2 AFAF | B2 dDdD |\
(DF)(BGBG) | (B2 Ac)ec | B2 AFAF | [B4D4] :|
